static/assets/images/tokens/weeth.svg

<svg width="256" height="256" viewBox="0 0 256 256" fill="none" xmlns="http://www.w3.org/2000/svg">
<path d="M256 128C256 57.3075 198.692 0 128 0C57.3075 0 0 57.3075 0 128C0 198.692 57.3075 256 128 256C198.692 256 256 198.692 256 128Z" fill="url(#paint0_linear_9439_738)"/>
<path d="M256 128C256 57.3075 198.692 0 128 0C57.3075 0 0 57.3075 0 128C0 198.692 57.3075 256 128 256C198.692 256 256 198.692 256 128Z" fill="url(#paint1_linear_9439_738)" fill-opacity="0.66"/>
<path fill-rule="evenodd" clip-rule="evenodd" d="M187.547 185.25C187.562 185.356 187.568 185.464 187.57 185.573C187.574 186.415 187.141 187.198 186.423 187.641L128.95 223.079C128.174 223.558 127.196 223.561 126.422 223.082L69.4132 188.086C68.6958 187.643 68.2593 186.862 68.2622 186.02C68.2622 185.948 68.2652 185.873 68.2742 185.801C68.2652 185.722 68.2622 185.648 68.2622 185.57L68.2586 141.845C68.2586 141.792 68.2617 141.739 68.2646 141.689C68.2228 141.055 68.4319 140.413 68.8803 139.915C69.6454 139.068 70.8978 138.873 71.8813 139.446L127.901 171.958L183.403 139.76C183.493 139.704 183.589 139.66 183.684 139.618C184.09 139.304 184.599 139.118 185.155 139.118C186.485 139.118 187.567 140.199 187.567 141.53L187.57 184.911C187.57 185.028 187.562 185.139 187.547 185.25ZM73.0863 181.754L89.6456 171.749L73.0838 148.955L73.0863 181.754ZM92.4912 175.669C87.8976 178.442 75.3136 186.045 75.3136 186.045L119.929 213.437L92.4912 175.669ZM136.214 212.934L180.519 185.612L163.4 175.318L136.214 212.934ZM166.236 171.393L182.746 181.32L182.743 148.552L166.236 171.393ZM126.69 176.833L79.331 149.344L127.898 216.2L176.015 149.622L129.111 176.833C128.364 177.266 127.438 177.266 126.69 176.833ZM70.5894 130.109C69.295 130.064 68.2577 129.002 68.2575 127.696L68.253 70.8615C68.253 70.7198 68.2651 70.5806 68.289 70.4472C68.2651 70.3166 68.253 70.1832 68.253 70.047C68.2499 69.2047 68.6863 68.4209 69.4037 67.9817L126.879 32.7318C127.65 32.2565 128.625 32.2566 129.396 32.7291L186.405 67.5341C187.125 67.9733 187.562 68.7571 187.562 69.5994C187.562 69.6355 187.558 69.669 187.558 69.7051C187.558 69.7412 187.562 69.7773 187.562 69.8162L187.566 127.398C187.566 128.416 186.933 129.289 186.042 129.642L129.062 160.986C128.339 161.383 127.46 161.383 126.737 160.986L70.5894 130.109ZM73.0779 74.3027L73.0814 120.035L93.5784 86.628L73.0779 74.3027ZM182.738 73.8691L162.047 86.3696L182.741 120.094L182.738 73.8691ZM159.525 82.256C164.83 79.0506 180.502 69.5828 180.502 69.5828L134.523 41.5102L159.525 82.256ZM120.934 42.0357L75.3134 70.0164L96.1008 82.5168L120.934 42.0357ZM74.5915 126.803L127.899 156.118L181.196 126.801L127.89 39.9258L74.5915 126.803Z" fill="#D7CDFF"/>
<defs>
<linearGradient id="paint0_linear_9439_738" x1="17.7378" y1="168.186" x2="239.461" y2="87.5552" gradientUnits="userSpaceOnUse">
<stop stop-color="#29BCFA"/>
<stop offset="0.43" stop-color="#6464E4"/>
<stop offset="1" stop-color="#B45AFA"/>
</linearGradient>
<linearGradient id="paint1_linear_9439_738" x1="136" y1="-16" x2="128" y2="256" gradientUnits="userSpaceOnUse">
<stop stop-color="#33117B" stop-opacity="0"/>
<stop offset="0.827261" stop-color="#33117B"/>
</linearGradient>
</defs>
</svg>

<svg xmlns="http://www.w3.org/2000/svg" fill="none" viewBox="0 0 256 256"><path fill="url(#paint0_linear_9439_738)" d="M256 128C256 57.308 198.692 0 128 0S0 57.308 0 128s57.308 128 128 128 128-57.308 128-128"/><path fill="url(#paint1_linear_9439_738)" fill-opacity=".66" d="M256 128C256 57.308 198.692 0 128 0S0 57.308 0 128s57.308 128 128 128 128-57.308 128-128"/><path fill="#D7CDFF" fill-rule="evenodd" d="M187.547 185.25q.021.16.023.323a2.41 2.41 0 0 1-1.147 2.068l-57.473 35.438a2.4 2.4 0 0 1-2.528.003l-57.009-34.996a2.42 2.42 0 0 1-1.139-2.285 2 2 0 0 1-.012-.231l-.003-43.725q0-.08.006-.156a2.41 2.41 0 0 1 3.616-2.243l56.02 32.512 55.502-32.198c.09-.056.186-.1.281-.142a2.414 2.414 0 0 1 3.883 1.912l.003 43.381q0 .174-.023.339m-114.46-3.496 16.559-10.005-16.562-22.794zm19.404-6.085c-4.593 2.773-17.177 10.376-17.177 10.376l44.615 27.392zm43.723 37.265 44.305-27.322-17.119-10.294zm30.022-41.541 16.51 9.927-.003-32.768zm-39.546 5.44-47.359-27.489 48.567 66.856 48.117-66.578-46.904 27.211a2.42 2.42 0 0 1-2.421 0m-56.1-46.724a2.416 2.416 0 0 1-2.333-2.413l-.004-56.834q0-.213.036-.415a2.41 2.41 0 0 1 1.115-2.465l57.475-35.25a2.41 2.41 0 0 1 2.517-.003l57.009 34.805a2.42 2.42 0 0 1 1.157 2.065l-.004.106.004.111.004 57.582a2.42 2.42 0 0 1-1.524 2.244l-56.98 31.344a2.42 2.42 0 0 1-2.325 0zm2.488-55.806.003 45.732 20.497-33.407zm109.66-.434-20.691 12.5 20.694 33.725zm-23.213 8.387 20.977-12.673-45.979-28.073zm-38.591-40.22-45.62 27.98 20.787 12.5zm-46.342 84.767 53.307 29.315 53.297-29.317-53.306-86.875z" clip-rule="evenodd"/><defs><linearGradient id="paint0_linear_9439_738" x1="17.738" x2="239.461" y1="168.186" y2="87.555" gradientUnits="userSpaceOnUse"><stop stop-color="#29BCFA"/><stop offset=".43" stop-color="#6464E4"/><stop offset="1" stop-color="#B45AFA"/></linearGradient><linearGradient id="paint1_linear_9439_738" x1="136" x2="128" y1="-16" y2="256" gradientUnits="userSpaceOnUse"><stop stop-color="#33117B" stop-opacity="0"/><stop offset=".827" stop-color="#33117B"/></linearGradient></defs></svg>
